icons/svg/google-chrome.svg

<svg width="24" height="24" viewBox="0 0 24 24" fill="none" xmlns="http://www.w3.org/2000/svg">
<path d="M12 8.25C9.92893 8.25 8.25 9.92893 8.25 12C8.25 12.0515 8.25104 12.1027 8.25309 12.1536M12 8.25C14.0711 8.25 15.75 9.92893 15.75 12C15.75 12.3556 15.7005 12.6996 15.6081 13.0255M12 8.25H20.4583M15.6081 13.0255C15.162 14.5981 13.7155 15.75 12 15.75C9.98038 15.75 8.33366 14.1535 8.25309 12.1536M15.6081 13.0255L12.5287 21.2351M20.4583 8.25C19.0196 5.0098 15.7737 2.75 12 2.75C9.12027 2.75 6.5479 4.06594 4.85142 6.12929C4.76519 6.23417 4.68122 6.34098 4.59958 6.44966M20.4583 8.25C20.5148 8.3773 20.5686 8.50611 20.6194 8.63636C21.0265 9.67886 21.25 10.8133 21.25 12C21.25 16.9312 17.3913 20.9612 12.5287 21.2351M12.5287 21.2351C12.3537 21.245 12.1774 21.25 12 21.25C6.89137 21.25 2.75 17.1086 2.75 12C2.75 9.91747 3.4382 7.99569 4.59958 6.44966M8.25309 12.1536L4.59958 6.44966" stroke="currentColor" stroke-width="1.5" stroke-linecap="round" stroke-linejoin="round"/>
</svg>

<svg xmlns="http://www.w3.org/2000/svg" width="24" height="24" fill="none" viewBox="0 0 24 24"><path stroke="currentColor" stroke-linecap="round" stroke-linejoin="round" stroke-width="1.5" d="M12 8.25a3.75 3.75 0 0 0-3.747 3.904M12 8.25a3.75 3.75 0 0 1 3.608 4.775M12 8.25h8.458m-4.85 4.775a3.752 3.752 0 0 1-7.355-.871m7.355.871-3.08 8.21m7.93-12.985A9.252 9.252 0 0 0 4.6 6.45m15.858 1.8q.085.19.161.386a9.25 9.25 0 0 1-8.09 12.599m0 0A9.25 9.25 0 0 1 2.75 12c0-2.083.688-4.004 1.85-5.55m3.653 5.704L4.6 6.45"/></svg>
